packages/react/src/components/base/Icon/assets/icon-file-svg.svg

<svg width="24" height="24" viewBox="0 0 24 24" xmlns="http://www.w3.org/2000/svg" fill="currentColor"> <path d="M4.68735 12.0005C4.98572 12.0005 5.27186 11.882 5.48284 11.671C5.69382 11.46 5.81235 11.1739 5.81235 10.8755V4.87549H12.9373V9.37549C12.9373 9.67386 13.0559 9.96001 13.2669 10.171C13.4778 10.382 13.764 10.5005 14.0623 10.5005H18.5623V10.8755C18.5623 11.1739 18.6809 11.46 18.8919 11.671C19.1028 11.882 19.389 12.0005 19.6873 12.0005C19.9857 12.0005 20.2719 11.882 20.4828 11.671C20.6938 11.46 20.8123 11.1739 20.8123 10.8755V9.00049C20.8123 8.70235 20.694 8.41642 20.4833 8.20549L15.2333 2.95549C15.1288 2.85088 15.0047 2.76789 14.8682 2.71127C14.7316 2.65464 14.5852 2.6255 14.4373 2.62549H5.43735C4.94007 2.62549 4.46315 2.82303 4.11152 3.17466C3.75989 3.52629 3.56235 4.00321 3.56235 4.50049V10.8755C3.56235 11.1739 3.68087 11.46 3.89185 11.671C4.10283 11.882 4.38898 12.0005 4.68735 12.0005ZM17.3436 8.25049H15.1873V6.09424L17.3436 8.25049ZM8.41672 19.2005C8.38061 19.5399 8.26994 19.8672 8.09264 20.1589C7.91534 20.4507 7.67579 20.6996 7.3911 20.888C6.8286 21.263 6.14704 21.3708 5.54047 21.3708C5.02649 21.3675 4.51508 21.2978 4.01891 21.1636C3.87423 21.126 3.73848 21.06 3.61961 20.9694C3.50074 20.8787 3.40112 20.7653 3.32658 20.6357C3.25203 20.5062 3.20406 20.363 3.18546 20.2147C3.16686 20.0664 3.17801 19.9158 3.21826 19.7719C3.2585 19.6279 3.32703 19.4934 3.41985 19.3762C3.51266 19.259 3.6279 19.1615 3.75882 19.0894C3.88975 19.0173 4.03374 18.9719 4.18238 18.9561C4.33103 18.9402 4.48134 18.9542 4.62454 18.9971C5.26391 19.1705 6.03079 19.148 6.1611 19.0027C6.17095 18.9816 6.17759 18.9592 6.18079 18.9361C5.99891 18.8208 5.54141 18.6886 5.25454 18.6052C4.74922 18.4589 4.22329 18.308 3.77797 18.0183C3.0636 17.5571 2.72704 16.8511 2.8311 16.0317C2.86581 15.6978 2.97349 15.3756 3.14651 15.0879C3.31953 14.8001 3.55366 14.554 3.83235 14.3667C4.40141 13.9833 5.16079 13.8211 6.09172 13.8821C6.47195 13.909 6.84904 13.9696 7.2186 14.063C7.50393 14.1417 7.74673 14.3297 7.89439 14.5862C8.04205 14.8428 8.08266 15.1472 8.00742 15.4334C7.93219 15.7197 7.74717 15.9648 7.49246 16.1156C7.23775 16.2663 6.93389 16.3107 6.64672 16.2389C6.05141 16.0861 5.37079 16.0974 5.14016 16.208C5.38326 16.3018 5.6311 16.3829 5.88266 16.4508C6.39547 16.5989 6.97672 16.7667 7.45766 17.0902C8.18704 17.5814 8.5311 18.3314 8.41672 19.2005ZM14.7467 15.3755L12.8717 20.6255C12.7936 20.8439 12.6499 21.0329 12.4603 21.1665C12.2707 21.3002 12.0443 21.3719 11.8123 21.3719C11.5804 21.3719 11.354 21.3002 11.1644 21.1665C10.9747 21.0329 10.831 20.8439 10.753 20.6255L8.87797 15.3755C8.82061 15.2346 8.79242 15.0835 8.79511 14.9314C8.79779 14.7793 8.8313 14.6293 8.89361 14.4905C8.95592 14.3517 9.04573 14.227 9.15761 14.1239C9.26949 14.0209 9.40111 13.9415 9.54453 13.8908C9.68794 13.84 9.84016 13.8188 9.99198 13.8286C10.1438 13.8383 10.2921 13.8788 10.4278 13.9474C10.5636 14.0161 10.684 14.1116 10.7817 14.2282C10.8795 14.3447 10.9527 14.4799 10.9967 14.6255L11.8123 16.9036L12.628 14.6255C12.672 14.4799 12.7452 14.3447 12.8429 14.2282C12.9407 14.1116 13.0611 14.0161 13.1969 13.9474C13.3326 13.8788 13.4809 13.8383 13.6327 13.8286C13.7845 13.8188 13.9368 13.84 14.0802 13.8908C14.2236 13.9415 14.3552 14.0209 14.4671 14.1239C14.579 14.227 14.6688 14.3517 14.7311 14.4905C14.7934 14.6293 14.8269 14.7793 14.8296 14.9314C14.8323 15.0835 14.8041 15.2346 14.7467 15.3755ZM21.1873 18.3755V19.5821C21.1874 19.872 21.0756 20.1507 20.8752 20.3602C20.5792 20.6781 20.2213 20.9321 19.8236 21.1067C19.4259 21.2813 18.9967 21.3728 18.5623 21.3755C16.7014 21.3755 15.1873 19.6936 15.1873 17.6255C15.1873 15.5574 16.7014 13.8755 18.5623 13.8755C19.1882 13.8773 19.7992 14.0667 20.3164 14.4192C20.4425 14.5002 20.5511 14.6056 20.6359 14.7292C20.7207 14.8528 20.78 14.992 20.8102 15.1388C20.8404 15.2856 20.841 15.437 20.812 15.584C20.7829 15.731 20.7247 15.8707 20.6409 15.995C20.5571 16.1192 20.4493 16.2254 20.3238 16.3074C20.1984 16.3894 20.0578 16.4455 19.9104 16.4724C19.763 16.4994 19.6116 16.4966 19.4653 16.4642C19.319 16.4318 19.1806 16.3705 19.0583 16.2839C18.9127 16.1823 18.7399 16.1271 18.5623 16.1255C17.953 16.1255 17.4373 16.8127 17.4373 17.6255C17.4373 18.4383 17.953 19.1255 18.5623 19.1255C18.6482 19.1253 18.7336 19.112 18.8155 19.0861C18.6811 18.9212 18.5962 18.7215 18.5707 18.5103C18.5452 18.2991 18.5801 18.085 18.6714 17.8928C18.7627 17.7007 18.9066 17.5383 19.0864 17.4246C19.2662 17.3109 19.4746 17.2505 19.6873 17.2505H20.0623C20.3607 17.2505 20.6469 17.369 20.8578 17.58C21.0688 17.791 21.1873 18.0771 21.1873 18.3755Z"/> </svg>

<svg viewBox="0 0 24 24" xmlns="http://www.w3.org/2000/svg" aria-hidden="true" fill="currentColor"><path d="M4.687 12a1.125 1.125 0 0 0 1.125-1.124v-6h7.125v4.5a1.125 1.125 0 0 0 1.125 1.125h4.5v.375a1.125 1.125 0 0 0 2.25 0V9c0-.298-.118-.584-.329-.795l-5.25-5.25a1.13 1.13 0 0 0-.796-.33h-9A1.875 1.875 0 0 0 3.562 4.5v6.376A1.125 1.125 0 0 0 4.687 12m12.657-3.75h-2.157V6.094zM8.417 19.2a2.32 2.32 0 0 1-1.026 1.688c-.562.375-1.244.483-1.85.483a6 6 0 0 1-1.522-.207 1.126 1.126 0 1 1 .606-2.167c.639.174 1.406.151 1.536.006a.2.2 0 0 0 .02-.067c-.182-.115-.64-.247-.926-.33-.506-.147-1.032-.298-1.477-.588-.714-.46-1.051-1.167-.947-1.986a2.29 2.29 0 0 1 1.001-1.665c.57-.384 1.329-.546 2.26-.485q.571.041 1.127.181a1.125 1.125 0 0 1-.572 2.176c-.596-.153-1.276-.142-1.507-.031q.365.141.743.243c.512.148 1.094.316 1.575.64.729.49 1.073 1.24.959 2.11m6.33-3.824-1.875 5.25a1.125 1.125 0 0 1-2.119 0l-1.875-5.25a1.125 1.125 0 1 1 2.119-.75l.815 2.278.816-2.278a1.125 1.125 0 1 1 2.119.75m6.44 3v1.206c0 .29-.111.569-.312.778a3.19 3.19 0 0 1-2.313 1.015c-1.86 0-3.375-1.681-3.375-3.75s1.514-3.75 3.375-3.75a3.13 3.13 0 0 1 1.754.544 1.124 1.124 0 1 1-1.258 1.865.9.9 0 0 0-.496-.159c-.609 0-1.125.688-1.125 1.5s.516 1.5 1.125 1.5a.9.9 0 0 0 .253-.039 1.125 1.125 0 0 1 .872-1.835h.375a1.125 1.125 0 0 1 1.125 1.124"/></svg>
